packages/core/src/svgs/tokens/mono/MDT.svg

<svg width="24" height="24" viewBox="0 0 24 24" fill="none" xmlns="http://www.w3.org/2000/svg">
<path d="M11.7999 2.06267L5.12496 6.10012C5.36872 6.30637 5.6062 6.86261 5.64995 6.9876L11.3748 3.47515V7.71885C11.3748 7.94383 11.675 8.24384 11.9999 8.25008C12.3249 8.25008 12.6249 7.93759 12.6249 7.71885V3.47515L18.3624 7.0001C18.4561 6.72511 18.781 6.21261 18.8748 6.11887C16.6942 4.73894 14.4961 3.38676 12.2812 2.06267C12.0311 1.96267 11.8561 2.01892 11.7999 2.06267ZM11.7999 21.9374L5.12496 17.8999C5.35435 17.6399 5.53249 17.3387 5.64995 17.0125L11.3748 20.5249V16.2812C11.3748 16.0563 11.675 15.7562 11.9999 15.7501C12.3249 15.7501 12.6249 16.0624 12.6249 16.2812V20.5249L18.3624 17C18.4561 17.275 18.781 17.7875 18.8748 17.8812C16.6942 19.2611 14.4961 20.6134 12.2812 21.9374C12.0311 22.0374 11.8561 21.9811 11.7999 21.9374ZM2.625 14.8125V9.21257C3.33749 9.45013 4.17499 9.31261 4.49997 9.21257V14.8125C3.88934 14.6229 3.23563 14.6229 2.625 14.8125ZM19.4998 14.8125V9.21257C20.2122 9.45013 21.0497 9.31261 21.3748 9.21257V14.8125C20.7642 14.6229 20.1104 14.6229 19.4998 14.8125ZM10.7749 12.6125L4.84997 9.06258C5.34331 8.6515 5.68264 8.08525 5.81245 7.45635L11.7374 11.0063C11.2277 11.4033 10.8845 11.9759 10.7749 12.6125ZM13.2998 12.6125L19.2311 9.06258C18.7377 8.6515 18.3984 8.08525 18.2686 7.45635L12.3373 11.0063C13.0373 11.5688 13.2749 12.3125 13.2998 12.6125Z" fill="white"/>
<path d="M20.4374 8.87521C21.3005 8.87521 22 8.17566 22 7.31273C22 6.44978 21.3005 5.75024 20.4374 5.75024C19.5746 5.75024 18.875 6.44978 18.875 7.31273C18.875 8.17566 19.5746 8.87521 20.4374 8.87521Z" fill="white"/>
<path d="M20.4374 18.2501C21.3005 18.2501 22 17.5507 22 16.6877C22 15.8248 21.3005 15.1252 20.4374 15.1252C19.5746 15.1252 18.875 15.8248 18.875 16.6877C18.875 17.5507 19.5746 18.2501 20.4374 18.2501Z" fill="white"/>
<path d="M3.56247 18.2501C4.42541 18.2501 5.12495 17.5507 5.12495 16.6877C5.12495 15.8248 4.42541 15.1252 3.56247 15.1252C2.69954 15.1252 2 15.8248 2 16.6877C2 17.5507 2.69954 18.2501 3.56247 18.2501Z" fill="white"/>
<path d="M3.56247 8.87521C4.42541 8.87521 5.12495 8.17566 5.12495 7.31273C5.12495 6.44978 4.42541 5.75024 3.56247 5.75024C2.69954 5.75024 2 6.44978 2 7.31273C2 8.17566 2.69954 8.87521 3.56247 8.87521Z" fill="white"/>
<path d="M11.987 13.5751C12.85 13.5751 13.5496 12.8755 13.5496 12.0126C13.5496 11.1498 12.85 10.4502 11.987 10.4502C11.1241 10.4502 10.4246 11.1498 10.4246 12.0126C10.4246 12.8755 11.1241 13.5751 11.987 13.5751Z" fill="white"/>
</svg>

<svg xmlns="http://www.w3.org/2000/svg" width="24" height="24" fill="none" viewBox="0 0 24 24">
    <path fill="#fff" d="M11.8 2.063 5.125 6.1c.244.206.481.763.525.888l5.725-3.513V7.72c0 .225.3.525.625.531.325 0 .625-.312.625-.531V3.475L18.362 7c.094-.275.419-.787.513-.881a305 305 0 0 0-6.594-4.056c-.25-.1-.425-.044-.481 0m0 19.874L5.125 17.9c.23-.26.407-.561.525-.887l5.725 3.512V16.28c0-.225.3-.525.625-.53.325 0 .625.311.625.53v4.244L18.362 17c.094.275.419.788.513.881a305 305 0 0 1-6.594 4.056c-.25.1-.425.044-.481 0m-9.175-7.125v-5.6c.712.238 1.55.1 1.875 0v5.6a3.16 3.16 0 0 0-1.875 0m16.875 0v-5.6c.712.238 1.55.1 1.875 0v5.6a3.16 3.16 0 0 0-1.875 0m-8.725-2.2L4.85 9.063a2.83 2.83 0 0 0 .962-1.606l5.925 3.55a2.6 2.6 0 0 0-.962 1.607m2.525 0 5.931-3.55a2.84 2.84 0 0 1-.962-1.606l-5.932 3.55c.7.563.938 1.306.963 1.607m7.137-3.74a1.562 1.562 0 1 0 0-3.125 1.562 1.562 0 0 0 0 3.125m0 9.375a1.562 1.562 0 1 0 0-3.125 1.562 1.562 0 0 0 0 3.125m-16.875 0a1.562 1.562 0 1 0 0-3.125 1.562 1.562 0 0 0 0 3.125m0-9.375a1.562 1.562 0 1 0 0-3.125 1.562 1.562 0 0 0 0 3.125"/>
    <path fill="#fff" d="M11.987 13.575a1.563 1.563 0 1 0 0-3.125 1.563 1.563 0 0 0 0 3.125"/>
</svg>
